svgs/twofas_auth.svg

<svg width="192" height="192" viewBox="0 0 192 192" fill="none" xmlns="http://www.w3.org/2000/svg">
<path d="M86.4 20.2167C75.9467 22.2902 42.56 31.6212 39.5733 33.28C32.4267 37.6345 32 39.9154 32 77.1354C32 113.008 32.5333 117.155 37.8667 128.041C39.36 130.944 42.56 135.609 45.0133 138.305C50.9867 144.837 92.6933 172 96.7467 172C100.48 172 136.747 148.362 144.747 140.69C147.84 137.787 151.787 132.706 153.493 129.492C159.36 118.814 160 113.837 160 77.1354C160 39.9154 159.573 37.6345 152.427 33.28C146.24 29.6513 108.587 20.4241 98.1333 20.113C93.12 19.9057 87.8933 20.0093 86.4 20.2167Z" stroke="black" stroke-width="8"/>
<path d="M117.5 50H56.5C51.8056 50 48 53.8056 48 58.5C48 63.1944 51.8056 67 56.5 67H117.5C122.194 67 126 63.1944 126 58.5C126 53.8056 122.194 50 117.5 50Z" stroke="black" stroke-width="8"/>
<path d="M78.5 79H56.5C51.8056 79 48 82.8056 48 87.5C48 92.1944 51.8056 96 56.5 96H78.5C83.1944 96 87 92.1944 87 87.5C87 82.8056 83.1944 79 78.5 79Z" stroke="black" stroke-width="8"/>
<path d="M65 116.5C65 111.806 61.1944 108 56.5 108C51.8056 108 48 111.806 48 116.5C48 121.194 51.8056 125 56.5 125C61.1944 125 65 121.194 65 116.5Z" stroke="black" stroke-width="8"/>
</svg>

<svg width="192" height="192" viewBox="0 0 192 192" fill="none" xmlns="http://www.w3.org/2000/svg"><path d="M86.4 20.217C75.947 22.29 42.56 31.62 39.573 33.28 32.427 37.635 32 39.915 32 77.135c0 35.873.533 40.02 5.867 50.906 1.493 2.903 4.693 7.568 7.146 10.264C50.987 144.837 92.693 172 96.747 172c3.733 0 40-23.638 48-31.31 3.093-2.903 7.04-7.984 8.746-11.198C159.36 118.814 160 113.837 160 77.135c0-37.22-.427-39.5-7.573-43.855-6.187-3.629-43.84-12.856-54.294-13.167-5.013-.207-10.24-.104-11.733.104Z" stroke="#000" stroke-width="8"/><path d="M117.5 50h-61a8.5 8.5 0 0 0 0 17h61a8.5 8.5 0 0 0 0-17ZM78.5 79h-22a8.5 8.5 0 0 0 0 17h22a8.5 8.5 0 0 0 0-17ZM65 116.5a8.5 8.5 0 1 0-17 0 8.5 8.5 0 0 0 17 0Z" stroke="#000" stroke-width="8"/></svg>
